X:460
T: Lads of Lexington (with piano acc.)
C: BB
R: reel
Q: 1/8=350
M: 4/4
L: 1/8
V: 1 program 1 110 %fiddle
V: 2 volume=70 clef=bass m=D program 1 01
K: Ador
[V:1] "Am"EA (3ABA cdea|"Am"cdea "G"gdBG|"Am"EA (3ABA cdea|"G"gedB GBdB|
[V:2] A,,2[A2C2E2]E,,2[E2C2A2]|A,,2[A2C2E2]G,,2[G2B2D2]|A,,2[A2C2E2]E,,2[E2C2A2]|\
G,,2[G2B2D2]D,2[G2B2D2]|
%
[V:1] "Am"EA (3ABA cdea|"Em"gede "G"g3 f|"Am"ea (3a^ga "Em"ba=ge|"G"dBgB "Am"cA A2 :|
[V:2] A,,2[A2C2E2]E,,2[E2C2A2]|E,2[E2B2G2]G,,2[G2B2D2]|A,,2[A2C2E2]E,2[E2B2G2]|\
G,,2[G2B2D2][A,,4C4E,4] :|
%
[V:1] "A"^cdef "G"gfed|"A"A^c (3cBc Ac (3cBc|"A"^cded "F#m"cBAF|"G"GB (3BAB GB (3BAB |
[V:2] A,,2[A2^C2E2]G,,2[G2B2D2]|A,,2[A2^C2E2]E,,2[A2^C2E2]|A,,2[A2^C2E2]F,,2[A2C2F2]|\
G,,2[G2B2D2]D,2[G2B2D2]|
%
[V:1] "A"A2 ^ce "G"gfed|"A"^ceae "G"g3 a|"A"ae (3efe"D"fd (3d^cd|"G"B^cdB "A"cA A2 :|
[V:2] A,,2[A2^C2E2]G,,2[G2B2D2]|A,,2[A2^C2E2]G,,2[G2B2D2]|A,,2[A2^C2E2]D,2[A2D2F2]|\
G,,2[G2B2D2][A,,4^C4E,4]:|

%%%%%%%%%%%%%%%%%%%%%%%%%%%%%%%%%%%%%%%%%%%

